X:254
T: Cameron[i]an Rant
N: O'Farrell's Pocket Companion v.3 (Sky ed. p.119)
N: "Scotch"
M: 2/4
L: 1/8
R: march
Q: 160
K: G
g//f//e/| dGGG| dGBG| dG e/f/g| d2 Bc|
cAAA| cAeA| BAAA| d2 B:|
A| G2 ga| gedB| G2 ga| gedB| Afab|
agfe| agab| agfe| gfga| gdBg|
gdfd| g2eg| f/g/a ea| f/g/a eg|
f/g/a gf| g2 g||
